logos/swagger.svg

<?xml version="1.0" encoding="UTF-8"?>
<svg width="256px" height="256px" viewBox="0 0 256 256" version="1.1" xmlns="http://www.w3.org/2000/svg" preserveAspectRatio="xMidYMid">
    <title>Swagger</title>
    <g>
        <path d="M127.998721,249.895198 C60.7844885,249.895198 6.09968517,195.215511 6.09968517,127.998721 C6.09968517,60.7819299 60.7844885,6.10224377 127.998721,6.10224377 C195.212953,6.10224377 249.897756,60.7870471 249.897756,128.001279 C249.897756,195.215511 195.212953,249.895198 127.998721,249.895198 Z" fill="#85EA2D"></path>
        <path d="M127.998721,12.2019289 C191.953306,12.2019289 243.795512,64.0441357 243.795512,127.998721 C243.795512,191.950747 191.953306,243.795512 127.998721,243.795512 C64.0466943,243.795512 12.2019289,191.950747 12.2019289,127.998721 C12.2019289,64.0466943 64.0466943,12.2019289 127.998721,12.2019289 M127.998721,0 C57.419939,0 1.45439161e-13,57.419939 1.45439161e-13,127.998721 C1.45439161e-13,198.577502 57.419939,255.997441 127.998721,255.997441 C198.577502,255.997441 256,198.577502 256,127.998721 C256,57.419939 198.577502,0 127.998721,0 L127.998721,0 Z" fill="#173647"></path>
        <path d="M80.598231,86.6185998 C80.2042077,90.9989106 80.7440708,95.5276198 80.4523912,99.9565439 C80.1069812,104.388027 79.5645595,108.768337 78.6792864,113.148648 C77.4486033,119.39929 73.5595423,124.125011 68.1967318,128.062686 C78.6332317,134.855749 79.812743,145.386917 80.5010044,156.069042 C80.8464145,161.828434 80.6980161,167.63644 81.289051,173.34466 C81.7316876,177.773585 83.4536205,178.907041 88.0335016,179.052881 C89.9038329,179.101494 91.8202189,179.052881 93.9899056,179.052881 L93.9899056,192.736235 C80.4549498,195.049203 69.2815751,191.211314 66.5234121,179.743701 C65.6355804,175.560402 65.0445455,171.277317 64.8500924,166.94562 C64.5532957,162.368297 65.0445455,157.790975 64.7016941,153.213652 C63.7166359,140.661196 62.0919294,136.429284 50.0844536,135.838249 L50.0844536,120.23595 C50.9697267,120.038939 51.8063865,119.89054 52.6916596,119.793314 C59.2877118,119.447904 62.0919294,117.429174 63.5196242,110.932907 C64.2104443,107.292029 64.6044675,103.59998 64.7503073,99.8593174 C65.2441157,92.7234021 65.0471041,85.4390885 66.2752286,78.3517865 C67.9971616,68.1634701 74.2989756,63.2407376 84.7840888,62.6497027 C87.7367048,62.5013043 90.7404927,62.6497027 94.1357453,62.6497027 L94.1357453,76.6298536 C92.7080506,76.7296387 91.4773674,76.9240917 90.1980711,76.9240917 C81.6830743,76.627295 81.2378792,79.5312978 80.598231,86.6185998 Z M96.9885763,119.005267 L96.7915646,119.005267 C91.8688321,118.759642 87.6369197,122.597531 87.3887362,127.520264 C87.1431113,132.49161 90.9810004,136.726081 95.9037329,136.969147 L96.4947679,136.969147 C101.368887,137.265944 105.549628,133.522723 105.846424,128.651162 L105.846424,128.159912 C105.94621,123.188566 101.959922,119.105052 96.9885763,119.005267 Z M127.850322,119.005267 C123.075988,118.856869 119.087142,122.597531 118.941302,127.323252 C118.941302,127.620049 118.941302,127.865674 118.992474,128.159912 C118.992474,133.525281 122.633352,136.971706 128.147119,136.971706 C133.561101,136.971706 136.958913,133.428055 136.958913,127.865674 C136.907741,122.500305 133.312918,118.956654 127.850322,119.005267 Z M159.451502,119.005267 C154.431543,118.905482 150.245685,122.894328 150.099845,127.914287 C150.099845,132.934246 154.134746,136.969147 159.154705,136.969147 L159.25449,136.969147 C163.783199,137.757194 168.360522,133.376883 168.657318,128.111299 C168.900385,123.23718 164.471461,119.005267 159.451502,119.005267 Z M202.814532,119.742142 C197.103753,119.496517 194.248363,117.577572 192.823227,112.161031 C191.935396,108.717166 191.395532,105.122343 191.198521,101.578692 C190.804498,94.9826395 190.853111,88.3379741 190.410474,81.7419219 C189.376803,66.0910099 178.057588,60.6284144 161.616071,63.3328469 L161.616071,76.9189746 C164.223277,76.9189746 166.242007,76.9189746 168.260737,76.9675878 C171.755774,77.0162011 174.414152,78.3466693 174.757004,82.2357303 C175.102414,85.7793813 175.102414,89.3716456 175.447824,92.9664684 C176.138644,100.104942 176.530108,107.338084 177.760792,114.376773 C178.845635,120.184778 182.831922,124.516476 187.80071,128.060127 C179.09126,133.916746 176.530108,142.283344 176.087472,151.686173 C175.841847,158.133826 175.693449,164.630093 175.350597,171.128919 C175.0538,177.034151 172.989016,178.953096 167.032612,179.101494 C165.359292,179.150107 163.734586,179.298506 161.864255,179.398291 L161.864255,193.32727 C165.359292,193.32727 168.557533,193.524282 171.755774,193.32727 C181.698466,192.736235 187.703483,187.913288 189.6736,178.264834 C190.510259,172.948079 191.001509,167.585268 191.149908,162.219899 C191.492759,157.297167 191.446704,152.325821 191.937954,147.45426 C192.674829,139.824537 196.169867,136.674909 203.79959,136.183659 C204.539024,136.083874 205.227285,135.938034 205.918105,135.692409 L205.918105,120.087552 C204.63625,119.939153 203.748418,119.793314 202.814532,119.742142 Z" fill="#173647"></path>
    </g>
</svg>

<svg preserveAspectRatio="xMidYMid" viewBox="0 0 256 256" xmlns="http://www.w3.org/2000/svg">
  <path fill="#85EA2D" d="M127.999 249.895c-67.215 0-121.9-54.68-121.9-121.896C6.1 60.782 60.785 6.102 128 6.102c67.214 0 121.899 54.685 121.899 121.9 0 67.214-54.685 121.893-121.9 121.893Z"/>
  <path fill="#173647" d="M127.999 12.202c63.954 0 115.797 51.842 115.797 115.797 0 63.952-51.843 115.797-115.797 115.797-63.952 0-115.797-51.845-115.797-115.797S64.047 12.202 127.999 12.202m0-12.202C57.419 0 0 57.42 0 127.999s57.42 127.998 127.999 127.998S256 198.577 256 128C256 57.419 198.578 0 127.999 0Z"/>
  <path fill="#173647" d="M80.598 86.619c-.394 4.38.146 8.909-.146 13.338-.345 4.431-.887 8.811-1.773 13.192-1.23 6.25-5.12 10.976-10.482 14.914 10.436 6.793 11.616 17.324 12.304 28.006.345 5.76.197 11.567.788 17.276.443 4.429 2.165 5.562 6.745 5.708 1.87.048 3.786 0 5.956 0v13.683c-13.535 2.313-24.708-1.525-27.467-12.992-.887-4.184-1.478-8.467-1.673-12.798-.297-4.578.195-9.155-.148-13.732-.985-12.553-2.61-16.785-14.618-17.376v-15.602a23.714 23.714 0 0 1 2.608-.443c6.596-.345 9.4-2.364 10.828-8.86.69-3.641 1.084-7.333 1.23-11.074.494-7.136.297-14.42 1.525-21.507C67.997 68.163 74.3 63.24 84.785 62.65c2.952-.149 5.955 0 9.35 0v13.98c-1.427.1-2.658.294-3.937.294-8.515-.297-8.96 2.607-9.6 9.695Zm16.39 32.386h-.196c-4.923-.245-9.155 3.593-9.403 8.515-.246 4.972 3.592 9.206 8.515 9.45h.59c4.875.296 9.056-3.447 9.352-8.319v-.491c.1-4.971-3.886-9.055-8.857-9.155Zm30.862 0c-4.774-.148-8.763 3.593-8.909 8.318 0 .297 0 .543.051.837 0 5.365 3.641 8.812 9.155 8.812 5.414 0 8.812-3.544 8.812-9.106-.051-5.366-3.646-8.91-9.109-8.86Zm31.602 0c-5.02-.1-9.206 3.89-9.352 8.91a9.03 9.03 0 0 0 9.055 9.054h.1c4.528.788 9.106-3.592 9.402-8.858.243-4.874-4.186-9.106-9.205-9.106Zm43.363.737c-5.711-.245-8.567-2.164-9.992-7.581a54.874 54.874 0 0 1-1.624-10.582c-.395-6.596-.346-13.241-.789-19.837-1.033-15.651-12.352-21.114-28.794-18.41V76.92c2.607 0 4.626 0 6.645.049 3.495.048 6.153 1.379 6.496 5.268.345 3.543.345 7.136.69 10.73.692 7.139 1.083 14.372 2.314 21.41 1.085 5.809 5.07 10.14 10.04 13.684-8.71 5.857-11.27 14.223-11.714 23.626-.245 6.448-.394 12.944-.736 19.443-.297 5.905-2.362 7.824-8.318 7.972-1.674.05-3.298.198-5.169.297v13.93c3.495 0 6.694.196 9.892 0 9.942-.592 15.947-5.415 17.918-15.063a125.582 125.582 0 0 0 1.476-16.045c.343-4.923.297-9.894.788-14.766.737-7.63 4.232-10.78 11.862-11.27.739-.1 1.427-.246 2.118-.492v-15.604c-1.282-.149-2.17-.295-3.103-.346Z"/>
</svg>
